src/assets/duotone/Arrow2.svg

<?xml version="1.0" encoding="UTF-8"?>
<svg width="24" height="24" viewBox="0 0 24 24" xmlns="http://www.w3.org/2000/svg">
 <path d="m21.75 6.73c0-0.2-0.08-0.38997-0.22-0.52997l-3.72-3.72c-0.29-0.29-0.77-0.29-1.06 0s-0.29 0.77 0 1.06l2.45 2.45h-16.2c-0.41 0-0.75 0.34-0.75 0.75s0.34 0.75 0.75 0.75h16.19l-2.44 2.44c-0.29 0.29004-0.29 0.77004 0 1.06 0.15 0.15 0.34 0.22 0.53 0.22s0.38-0.07 0.53-0.22l3.71-3.71c0.07-0.07 0.13-0.16001 0.17-0.26001 0-0.01 0-0.02003 0.01-0.03003 0.03-0.09 0.05-0.17001 0.05-0.26001z" opacity=".4"/>
 <path d="m21 16.52h-16.19l2.44-2.44c0.29-0.29 0.29-0.77 0-1.06s-0.77-0.29-1.06 0l-3.71 3.71c-0.07 0.07-0.12998 0.16-0.16998 0.26 0 0.01-1e-5 0.02-0.01001 0.03-0.03 0.08-0.04999 0.17-0.04999 0.26 0 0.2 0.07997 0.39 0.21997 0.53l3.72 3.72c0.15 0.15 0.33997 0.22 0.52997 0.22s0.38003-0.07 0.53003-0.22c0.29-0.29 0.29-0.7701 0-1.0601l-2.45-2.4499h16.2c0.41 0 0.75-0.34 0.75-0.75s-0.34-0.75-0.75-0.75z"/>
</svg>

<svg width="24" height="24" viewBox="0 0 24 24"  xmlns="http://www.w3.org/2000/svg">
<path opacity="0.4" d="M21.75 6.72995C21.75 6.52995 21.67 6.33998 21.53 6.19998L17.81 2.47995C17.52 2.18995 17.04 2.18995 16.75 2.47995C16.46 2.76995 16.46 3.24995 16.75 3.53995L19.2 5.98996H3C2.59 5.98996 2.25 6.32996 2.25 6.73996C2.25 7.14996 2.59 7.48996 3 7.48996H19.19L16.75 9.92996C16.46 10.22 16.46 10.7 16.75 10.99C16.9 11.14 17.09 11.21 17.28 11.21C17.47 11.21 17.66 11.14 17.81 10.99L21.52 7.28C21.59 7.21 21.65 7.11999 21.69 7.01999C21.69 7.00999 21.69 6.99996 21.7 6.98996C21.73 6.89996 21.75 6.81995 21.75 6.72995Z" />
<path d="M21 16.52H4.81L7.25 14.08C7.54 13.79 7.54 13.31 7.25 13.02C6.96 12.73 6.48 12.73 6.19 13.02L2.47998 16.73C2.40998 16.8 2.35 16.89 2.31 16.99C2.31 17 2.30999 17.01 2.29999 17.02C2.26999 17.1 2.25 17.19 2.25 17.28C2.25 17.48 2.32997 17.67 2.46997 17.81L6.19 21.53C6.34 21.68 6.52997 21.75 6.71997 21.75C6.90997 21.75 7.1 21.68 7.25 21.53C7.54 21.24 7.54 20.7599 7.25 20.4699L4.79999 18.02H21C21.41 18.02 21.75 17.68 21.75 17.27C21.75 16.86 21.41 16.52 21 16.52Z" />
</svg>
